cloud-clock.svg

<svg fill="currentColor" viewBox="0 0 24 24"><path d="M23 15.5c0-.71-.16-1.36-.45-1.96a7 7 0 0 0-3.69-3.92 6.55 6.55 0 0 0-1.9-3.58C15.6 4.68 13.95 4 12 4c-1.58 0-3 .47-4.25 1.43s-2.08 2.19-2.5 3.72c-1.25.28-2.29.93-3.08 1.95S1 13.28 1 14.58c0 1.51.54 2.8 1.61 3.85C3.69 19.5 5 20 6.5 20h3.76c1.27 1.81 3.36 3 5.74 3 3.87 0 7-3.13 7-7v-.5M16 21c-2.76 0-5-2.24-5-5s2.24-5 5-5 5 2.24 5 5-2.24 5-5 5m.5-4.75 2.86 1.69-.75 1.22L15 17v-5h1.5z"/></svg>

<svg  viewBox="0 0 24 24" fill="currentColor"><path  d="M23 15.5C23 14.79 22.84 14.14 22.55 13.54C21.89 11.79 20.56 10.38 18.86 9.62C18.61 8.26 18 7.06 16.96 6.04C15.6 4.68 13.95 4 12 4C10.42 4 9 4.47 7.75 5.43S5.67 7.62 5.25 9.15C4 9.43 2.96 10.08 2.17 11.1S1 13.28 1 14.58C1 16.09 1.54 17.38 2.61 18.43C3.69 19.5 5 20 6.5 20H10.26C11.53 21.81 13.62 23 16 23C19.87 23 23 19.87 23 16C23 15.89 23 15.79 23 15.68C23 15.62 23 15.56 23 15.5M16 21C13.24 21 11 18.76 11 16S13.24 11 16 11 21 13.24 21 16 18.76 21 16 21M16.5 16.25L19.36 17.94L18.61 19.16L15 17V12H16.5V16.25Z"/></svg>
